img/test_logo.svg

<svg width="92" height="78" viewBox="0 0 92 78" fill="none" xmlns="http://www.w3.org/2000/svg">
<rect width="92" height="78" fill="#DF3E3E"/>
<path d="M21.0128 29.1169V47.2987H18.9176V29.1169H21.0128ZM32.89 47.5828C31.6589 47.5828 30.5788 47.2898 29.6496 46.7039C28.7263 46.118 28.0042 45.2982 27.4834 44.2447C26.9685 43.1912 26.711 41.9602 26.711 40.5515C26.711 39.1311 26.9685 37.8912 27.4834 36.8317C28.0042 35.7723 28.7263 34.9496 29.6496 34.3637C30.5788 33.7778 31.6589 33.4848 32.89 33.4848C34.1211 33.4848 35.1982 33.7778 36.1215 34.3637C37.0508 34.9496 37.7728 35.7723 38.2877 36.8317C38.8086 37.8912 39.069 39.1311 39.069 40.5515C39.069 41.9602 38.8086 43.1912 38.2877 44.2447C37.7728 45.2982 37.0508 46.118 36.1215 46.7039C35.1982 47.2898 34.1211 47.5828 32.89 47.5828ZM32.89 45.7007C33.8251 45.7007 34.5945 45.461 35.1982 44.9816C35.8019 44.5022 36.2488 43.8719 36.5388 43.0906C36.8288 42.3094 36.9738 41.463 36.9738 40.5515C36.9738 39.6401 36.8288 38.7908 36.5388 38.0036C36.2488 37.2164 35.8019 36.5802 35.1982 36.0949C34.5945 35.6095 33.8251 35.3669 32.89 35.3669C31.9549 35.3669 31.1855 35.6095 30.5818 36.0949C29.9781 36.5802 29.5312 37.2164 29.2412 38.0036C28.9512 38.7908 28.8062 39.6401 28.8062 40.5515C28.8062 41.463 28.9512 42.3094 29.2412 43.0906C29.5312 43.8719 29.9781 44.5022 30.5818 44.9816C31.1855 45.461 31.9549 45.7007 32.89 45.7007ZM50.2715 52.6964C49.2594 52.6964 48.3894 52.5662 47.6614 52.3058C46.9334 52.0513 46.3268 51.714 45.8414 51.2937C45.362 50.8794 44.9803 50.4355 44.6962 49.9621L46.3652 48.7902C46.5546 49.0388 46.7943 49.3229 47.0843 49.6425C47.3743 49.968 47.7709 50.2491 48.274 50.4859C48.783 50.7285 49.4488 50.8498 50.2715 50.8498C51.3723 50.8498 52.2808 50.5835 52.997 50.0508C53.7131 49.5182 54.0712 48.6836 54.0712 47.5473V44.7774H53.8936C53.7398 45.026 53.5208 45.3337 53.2367 45.7007C52.9585 46.0617 52.556 46.3843 52.0293 46.6684C51.5085 46.9466 50.8042 47.0856 49.9164 47.0856C48.8155 47.0856 47.8271 46.8252 46.9512 46.3044C46.0811 45.7836 45.3916 45.026 44.8826 44.0317C44.3796 43.0373 44.128 41.83 44.128 40.4095C44.128 39.0127 44.3736 37.7965 44.8649 36.7607C45.3561 35.719 46.0397 34.9141 46.9157 34.3459C47.7916 33.7718 48.8037 33.4848 49.9519 33.4848C50.8397 33.4848 51.544 33.6327 52.0648 33.9287C52.5916 34.2187 52.994 34.5501 53.2722 34.923C53.5563 35.2899 53.7753 35.5918 53.9292 35.8285H54.1422V33.6623H56.1664V47.6893C56.1664 48.8612 55.9 49.8141 55.3674 50.548C54.8406 51.2878 54.1304 51.8294 53.2367 52.1726C52.3489 52.5218 51.3605 52.6964 50.2715 52.6964ZM50.2005 45.2035C51.0409 45.2035 51.7511 45.0112 52.3311 44.6265C52.9112 44.2418 53.3521 43.6884 53.6539 42.9663C53.9558 42.2443 54.1067 41.3801 54.1067 40.374C54.1067 39.3915 53.9587 38.5244 53.6628 37.7728C53.3669 37.0211 52.9289 36.4322 52.3489 36.0061C51.7689 35.58 51.0527 35.3669 50.2005 35.3669C49.3127 35.3669 48.5729 35.5918 47.981 36.0416C47.3951 36.4914 46.9541 37.0951 46.6582 37.8527C46.3682 38.6103 46.2232 39.4507 46.2232 40.374C46.2232 41.321 46.3712 42.1584 46.6671 42.8864C46.9689 43.6085 47.4128 44.1767 47.9988 44.591C48.5906 44.9993 49.3245 45.2035 50.2005 45.2035ZM68.0414 47.5828C66.8103 47.5828 65.7302 47.2898 64.801 46.7039C63.8777 46.118 63.1556 45.2982 62.6348 44.2447C62.1199 43.1912 61.8624 41.9602 61.8624 40.5515C61.8624 39.1311 62.1199 37.8912 62.6348 36.8317C63.1556 35.7723 63.8777 34.9496 64.801 34.3637C65.7302 33.7778 66.8103 33.4848 68.0414 33.4848C69.2724 33.4848 70.3496 33.7778 71.2729 34.3637C72.2021 34.9496 72.9242 35.7723 73.4391 36.8317C73.9599 37.8912 74.2203 39.1311 74.2203 40.5515C74.2203 41.9602 73.9599 43.1912 73.4391 44.2447C72.9242 45.2982 72.2021 46.118 71.2729 46.7039C70.3496 47.2898 69.2724 47.5828 68.0414 47.5828ZM68.0414 45.7007C68.9765 45.7007 69.7459 45.461 70.3496 44.9816C70.9533 44.5022 71.4002 43.8719 71.6902 43.0906C71.9802 42.3094 72.1252 41.463 72.1252 40.5515C72.1252 39.6401 71.9802 38.7908 71.6902 38.0036C71.4002 37.2164 70.9533 36.5802 70.3496 36.0949C69.7459 35.6095 68.9765 35.3669 68.0414 35.3669C67.1062 35.3669 66.3368 35.6095 65.7331 36.0949C65.1294 36.5802 64.6826 37.2164 64.3926 38.0036C64.1026 38.7908 63.9576 39.6401 63.9576 40.5515C63.9576 41.463 64.1026 42.3094 64.3926 43.0906C64.6826 43.8719 65.1294 44.5022 65.7331 44.9816C66.3368 45.461 67.1062 45.7007 68.0414 45.7007Z" fill="black"/>
</svg>

<svg xmlns="http://www.w3.org/2000/svg" width="92" height="78" fill="none"><path fill="#DF3E3E" d="M0 0h92v78H0z"/><path fill="#000" d="M21.013 29.117v18.182h-2.095V29.117h2.095ZM32.89 47.583c-1.231 0-2.311-.293-3.24-.88-.924-.585-1.646-1.405-2.167-2.458-.515-1.054-.772-2.285-.772-3.694 0-1.42.258-2.66.772-3.72.521-1.059 1.243-1.881 2.167-2.467.929-.586 2.009-.88 3.24-.88 1.231 0 2.308.294 3.231.88.93.586 1.652 1.408 2.167 2.468.52 1.06.781 2.3.781 3.72 0 1.408-.26 2.64-.781 3.693-.515 1.053-1.237 1.873-2.166 2.459-.924.586-2 .879-3.232.879Zm0-1.882c.935 0 1.704-.24 2.308-.72.604-.479 1.05-1.11 1.34-1.89a7.24 7.24 0 0 0 .436-2.54c0-.91-.145-1.76-.435-2.547-.29-.788-.737-1.424-1.34-1.91-.605-.485-1.374-.727-2.309-.727s-1.704.242-2.308.728c-.604.485-1.05 1.121-1.34 1.909a7.314 7.314 0 0 0-.436 2.547c0 .912.145 1.758.435 2.54.29.78.737 1.411 1.34 1.89.605.48 1.374.72 2.309.72Zm17.382 6.995c-1.013 0-1.883-.13-2.61-.39-.729-.255-1.335-.592-1.82-1.012a5.538 5.538 0 0 1-1.146-1.332l1.67-1.172c.189.249.428.533.718.852.29.326.687.607 1.19.844.509.242 1.175.364 1.998.364 1.1 0 2.009-.267 2.725-.8.716-.532 1.074-1.366 1.074-2.503v-2.77h-.177c-.154.249-.373.557-.657.924-.279.36-.681.683-1.208.967-.52.279-1.225.418-2.113.418-1.1 0-2.089-.26-2.965-.782-.87-.52-1.56-1.278-2.068-2.272-.503-.995-.755-2.202-.755-3.622 0-1.397.246-2.613.737-3.65.491-1.041 1.175-1.846 2.05-2.414.877-.574 1.889-.861 3.037-.861.888 0 1.592.148 2.113.444.527.29.929.621 1.207.994.284.367.503.669.657.905h.213v-2.166h2.024V47.69c0 1.172-.266 2.125-.799 2.859-.526.74-1.237 1.281-2.13 1.625-.888.349-1.877.523-2.965.523Zm-.072-7.492c.84 0 1.551-.193 2.131-.578.58-.384 1.021-.938 1.323-1.66.302-.722.453-1.586.453-2.592 0-.983-.148-1.85-.444-2.601-.296-.752-.734-1.34-1.314-1.767-.58-.426-1.296-.64-2.148-.64-.888 0-1.628.226-2.22.676-.586.45-1.027 1.053-1.323 1.81-.29.758-.435 1.599-.435 2.522 0 .947.148 1.784.444 2.512.302.722.746 1.29 1.332 1.705.592.408 1.325.612 2.201.612Zm17.841 2.379c-1.23 0-2.31-.293-3.24-.88-.923-.585-1.645-1.405-2.166-2.458-.515-1.054-.773-2.285-.773-3.694 0-1.42.258-2.66.773-3.72.52-1.059 1.243-1.881 2.166-2.467.93-.586 2.01-.88 3.24-.88 1.231 0 2.309.294 3.232.88.93.586 1.651 1.408 2.166 2.468.52 1.06.781 2.3.781 3.72 0 1.408-.26 2.64-.78 3.693-.516 1.053-1.238 1.873-2.167 2.459-.923.586-2 .879-3.232.879Zm0-1.882c.936 0 1.705-.24 2.309-.72.603-.479 1.05-1.11 1.34-1.89a7.24 7.24 0 0 0 .435-2.54c0-.91-.145-1.76-.435-2.547-.29-.788-.737-1.424-1.34-1.91-.604-.485-1.373-.727-2.309-.727-.935 0-1.704.242-2.308.728-.604.485-1.05 1.121-1.34 1.909a7.314 7.314 0 0 0-.435 2.547c0 .912.145 1.758.435 2.54.29.78.736 1.411 1.34 1.89.604.48 1.373.72 2.308.72Z"/></svg>
